packages/core/src/svgs/tokens/mono/MNGO.svg

<svg width="24" height="24" viewBox="0 0 24 24" fill="none" xmlns="http://www.w3.org/2000/svg">
<path d="M13.7501 15.4622C12.7626 17.7935 10.8625 19.3372 8.5562 19.5685C8.50619 19.5685 7.86867 19.6248 7.5249 19.5997C9.30693 20.8168 11.3488 21.6002 13.4876 21.8874C14.1752 21.956 14.9564 22.0123 15.7377 21.9937C16.0189 21.2874 16.1752 20.4748 16.1315 19.556C16.0251 17.4184 17.2877 16.3184 18.6565 15.7559C17.9624 14.6497 17.4298 13.45 17.0752 12.1934C16.0065 12.4745 14.6502 13.3496 13.7563 15.4622H13.7501Z" fill="white"/>
<path d="M16.088 19.5376C16.1242 20.3788 15.9816 21.2181 15.6692 22.0001C17.6943 21.9502 19.8132 21.3751 20.3569 19.2188C20.4694 18.7563 20.4818 18.2563 20.2944 17.825C20.1069 17.4062 19.7506 17.0812 19.4318 16.7438C19.1318 16.425 18.863 16.075 18.6193 15.7124C17.2568 16.2749 15.9817 17.4 16.088 19.5376Z" fill="white"/>
<path d="M17.0008 11.956C16.6883 11.1435 16.4257 10.3183 16.0257 9.55588C15.5427 8.69173 14.9316 7.90573 14.2132 7.22456C13.2825 7.24788 12.3595 7.05084 11.5193 6.64954C10.6443 7.86208 9.65683 9.91218 10.5631 12.2497C11.9068 15.706 9.18804 18.0686 7.43799 19.5312L7.52549 19.5936C7.85049 19.625 8.18176 19.6187 8.50676 19.5812C10.8193 19.3499 12.8256 17.7686 13.8195 15.4435C14.7194 13.3311 16.0257 12.531 17.0883 12.2559L17.0008 11.956Z" fill="white"/>
<path d="M5.58115 7.35571C4.24729 8.84677 3.52619 10.7868 3.56233 12.7871C3.58393 14.0809 3.95076 15.3453 4.62486 16.4497C7.43745 13.681 6.42493 9.54952 5.58115 7.35571Z" fill="white"/>
<path d="M10.6131 12.2496C9.70685 9.90584 10.6756 7.8745 11.5381 6.66196C10.9695 6.37496 10.4621 5.98011 10.0443 5.49943C9.18835 5.48189 8.33852 5.64734 7.55167 5.98472C6.7648 6.3221 6.05908 6.82362 5.48168 7.45574C6.3067 9.60582 7.30048 13.6434 4.55664 16.3498C5.30682 17.6093 6.3039 18.7042 7.48798 19.5686C9.23178 18.106 11.9568 15.706 10.6131 12.2559V12.2496Z" fill="white"/>
<path d="M14.0004 4.16825C15.9004 4.90578 17.2318 5.10579 18.2006 5.07453L18.2255 5.05579C14.6316 -0.969398 9.92529 3.77449 9.92529 3.77449L9.93156 3.787C11.2946 3.54067 12.6991 3.67032 13.9942 4.16201L14.0004 4.16825Z" fill="white"/>
<path d="M14.0252 4.12436C12.4439 3.51184 10.9626 3.53685 9.9314 3.78686C12.6377 8.44324 17.7753 5.3369 18.1941 5.07439C17.2316 5.10564 15.9253 4.86189 14.0252 4.12436Z" fill="white"/>
</svg>

<svg xmlns="http://www.w3.org/2000/svg" width="24" height="24" fill="none" viewBox="0 0 24 24">
    <path fill="#fff" d="M13.75 15.462c-.987 2.332-2.887 3.875-5.194 4.107-.05 0-.687.056-1.031.03a13.8 13.8 0 0 0 5.963 2.288c.687.069 1.468.125 2.25.107a5.8 5.8 0 0 0 .393-2.438c-.106-2.138 1.157-3.238 2.526-3.8a13.7 13.7 0 0 1-1.582-3.563c-1.069.282-2.425 1.157-3.319 3.27z"/>
    <path fill="#fff" d="M16.088 19.538A5.95 5.95 0 0 1 15.669 22c2.025-.05 4.144-.625 4.688-2.781.112-.463.125-.963-.063-1.394-.187-.419-.543-.744-.862-1.081a8 8 0 0 1-.813-1.032c-1.362.563-2.637 1.688-2.531 3.826M17 11.956c-.312-.812-.574-1.638-.974-2.4a9.8 9.8 0 0 0-1.813-2.331 5.9 5.9 0 0 1-2.694-.575c-.875 1.212-1.862 3.262-.956 5.6 1.344 3.456-1.375 5.819-3.125 7.281l.087.063c.325.031.657.025.982-.013 2.312-.231 4.319-1.812 5.313-4.137.9-2.113 2.206-2.913 3.268-3.188zm-11.419-4.6a7.93 7.93 0 0 0-2.019 5.431 7.26 7.26 0 0 0 1.063 3.663c2.812-2.769 1.8-6.9.956-9.094"/>
    <path fill="#fff" d="M10.613 12.25c-.906-2.344.063-4.375.925-5.588a4.9 4.9 0 0 1-1.494-1.163 6 6 0 0 0-4.562 1.957c.825 2.15 1.818 6.187-.925 8.894a10.9 10.9 0 0 0 2.931 3.219c1.744-1.463 4.469-3.863 3.125-7.313zM14 4.168c1.9.738 3.232.938 4.2.907l.026-.02c-3.594-6.024-8.3-1.28-8.3-1.28l.006.012a7.6 7.6 0 0 1 4.062.375z"/>
    <path fill="#fff" d="M14.025 4.124c-1.581-.612-3.062-.587-4.094-.337 2.707 4.656 7.844 1.55 8.263 1.287-.962.032-2.269-.212-4.169-.95"/>
</svg>
